suite-common/icons/assets/icons/cube.svg

<svg xmlns="http://www.w3.org/2000/svg" fill="none" viewBox="0 0 24 24">
  <path d="M11.651 1.027c-.23.032-1.276.608-6.69 3.686-2.48 1.409-2.554 1.46-2.78 1.907-.118.235-.118.237-.151 1.218-.018.54-.027 2.8-.021 5.022l.011 4.04.091.253c.167.46.384.715.854.999.644.391 4.28 2.445 7.122 4.026 1.227.682 1.373.753 1.63.792.506.079.734.016 1.512-.412 2.024-1.116 6.958-3.899 7.695-4.341s.984-.818 1.045-1.594c.019-.243.029-2.495.023-5.003l-.012-4.56-.092-.255c-.178-.493-.333-.636-1.348-1.241-1.327-.791-7.814-4.411-8.021-4.475-.162-.051-.68-.088-.868-.062m2.109 2.981c1.716.954 4.634 2.609 4.974 2.82l.193.12-1.313.761C14.076 9.758 12.221 10.8 12.11 10.8c-.046 0-.337-.133-.647-.295-1.014-.532-6.003-3.326-6.276-3.516l-.112-.078.452-.259c.489-.28 4.817-2.703 5.833-3.266.341-.189.647-.334.68-.322.033.011.807.436 1.72.944m-6.167 6.621 3.497 1.95-.029 3.5c-.017 1.926-.041 3.687-.056 3.913l-.025.413-1.82-1.014c-1.001-.558-2.571-1.436-3.49-1.952L4 16.5v-3.46c0-3.202.02-4.36.073-4.36.012 0 1.596.877 3.52 1.949M20 12.59v3.911l-2.87 1.61c-1.578.886-3.14 1.76-3.47 1.943l-.6.334-.027-.324c-.032-.377.03-7.373.066-7.467.013-.034.1-.101.193-.148.092-.046 1.617-.912 3.388-1.924 1.771-1.011 3.242-1.84 3.27-1.842.04-.002.05.804.05 3.907"/>
</svg>

<svg xmlns="http://www.w3.org/2000/svg" fill="none" viewBox="0 0 24 24"><path d="M11.651 1.027 C 11.421 1.059,10.375 1.635,4.961 4.713 C 2.481 6.122,2.407 6.173,2.181 6.620 C 2.063 6.855,2.063 6.857,2.030 7.838 C 2.012 8.378,2.003 10.638,2.009 12.860 L 2.020 16.900 2.111 17.153 C 2.278 17.613,2.495 17.868,2.965 18.152 C 3.609 18.543,7.245 20.597,10.087 22.178 C 11.314 22.860,11.460 22.931,11.717 22.970 C 12.223 23.049,12.451 22.986,13.229 22.558 C 15.253 21.442,20.187 18.659,20.924 18.217 C 21.662 17.774,21.908 17.399,21.969 16.623 C 21.988 16.380,21.998 14.128,21.992 11.620 L 21.980 7.060 21.888 6.805 C 21.710 6.312,21.555 6.169,20.540 5.564 C 19.213 4.773,12.726 1.153,12.519 1.089 C 12.357 1.038,11.839 1.001,11.651 1.027 M13.760 4.008 C 15.476 4.962,18.394 6.617,18.734 6.828 L 18.927 6.948 17.614 7.709 C 14.076 9.758,12.221 10.800,12.110 10.800 C 12.064 10.800,11.773 10.667,11.463 10.505 C 10.449 9.973,5.460 7.179,5.187 6.989 L 5.075 6.911 5.527 6.652 C 6.016 6.372,10.344 3.949,11.360 3.386 C 11.701 3.197,12.007 3.052,12.040 3.064 C 12.073 3.075,12.847 3.500,13.760 4.008 M7.593 10.629 L 11.090 12.579 11.061 16.079 C 11.044 18.005,11.020 19.766,11.005 19.992 L 10.980 20.405 9.160 19.391 C 8.159 18.833,6.589 17.955,5.670 17.439 L 4.000 16.500 4.000 13.040 C 4.000 9.838,4.020 8.680,4.073 8.680 C 4.085 8.680,5.669 9.557,7.593 10.629 M20.000 12.590 L 20.000 16.501 17.130 18.111 C 15.552 18.997,13.990 19.871,13.660 20.054 L 13.060 20.388 13.033 20.064 C 13.001 19.687,13.063 12.691,13.099 12.597 C 13.112 12.563,13.199 12.496,13.292 12.449 C 13.384 12.403,14.909 11.537,16.680 10.525 C 18.451 9.514,19.922 8.685,19.950 8.683 C 19.990 8.681,20.000 9.487,20.000 12.590 " stroke="none" fill-rule="evenodd"></path></svg>
